demoApp/www/icon/calls.svg

<svg id="Layer_1" xmlns="http://www.w3.org/2000/svg" viewBox="0 0 24 33" width="24" height="33"><style>.st1{fill:#6f6d6d}</style><font horiz-adv-x="2048"><font-face font-family="ArialMT" units-per-em="2048" underline-position="-217" underline-thickness="150"/><glyph unicode="C" horiz-adv-x="1479" d="M1204 514l194-49c-41-159-114-281-219-364C1073 17 944-25 791-25 633-25 505 7 406 72c-99 64-175 157-226 279-52 122-78 253-78 393 0 153 29 286 88 400 58 113 141 200 249 259 107 59 226 88 355 88 147 0 270-37 370-112s170-180 209-315l-191-45c-34 107-83 184-148 233s-146 73-244 73c-113 0-207-27-282-81-76-54-129-126-160-217s-46-185-46-282c0-125 18-233 55-326 36-93 92-163 169-209s160-69 249-69c109 0 201 31 276 94s126 156 153 279z"/><glyph unicode="a" horiz-adv-x="1139" d="M828 131C761 74 697 34 636 11c-62-23-128-35-199-35-117 0-206 29-269 86S74 191 74 280c0 52 12 100 36 143 23 43 54 77 93 103 38 26 81 46 129 59 35 9 89 18 160 27 145 17 252 38 321 62 1 25 1 40 1 47 0 73-17 125-51 155-46 41-114 61-205 61-85 0-147-15-187-44-41-30-71-83-90-158l-176 24c16 75 42 136 79 183 37 46 90 82 159 107s150 37 241 37 164-11 221-32 98-48 125-80c27-33 45-74 56-123 6-31 9-86 9-166V445c0-167 4-273 12-317 7-45 22-87 45-128H864c-19 37-31 81-36 131m-15 402c-65-27-163-49-294-68-74-11-126-23-157-36s-54-33-71-58c-17-26-25-55-25-86 0-48 18-88 55-120 36-32 89-48 159-48 69 0 131 15 185 46 54 30 94 71 119 124 19 41 29 101 29 180z"/><glyph unicode="l" horiz-adv-x="455" d="M131 0v1466h180V0z"/><glyph unicode="s" horiz-adv-x="1024" d="M63 317l178 28c10-71 38-126 84-164 45-38 109-57 191-57 83 0 144 17 184 51 40 33 60 73 60 118 0 41-18 73-53 96-25 16-86 36-184 61-132 33-223 62-274 87-51 24-90 58-116 101-27 43-40 90-40 142 0 47 11 91 33 132 21 40 51 73 88 100 28 21 66 38 115 53 48 14 100 21 155 21 83 0 157-12 220-36s109-56 139-97 51-96 62-165l-176-24c-8 55-31 97-69 128-39 31-93 46-163 46-83 0-142-14-177-41s-53-59-53-96c0-23 7-44 22-63s38-35 69-48c18-7 71-22 159-46 127-34 216-62 267-83 50-22 89-54 118-95s43-93 43-154c0-60-17-116-52-169S807 49 741 20 600-24 517-24C379-24 274 5 202 62 129 119 83 204 63 317z"/></font><font horiz-adv-x="2048"><font-face font-family="TeamsAssets-Regular" units-per-em="2048" underline-position="-119" underline-thickness="119"/><glyph unicode="" horiz-adv-x="2048" d="M783 1878c19-7 36-19 53-34s34-36 51-61c29-44 53-95 74-154 20-60 30-116 30-167 0-34-4-65-13-92s-22-53-39-78c-13-19-27-38-43-55-17-18-33-35-48-50l-30-30 309-444 56 27c41 20 80 35 117 44 19 5 39 7 62 7 57 0 114-16 171-48 43-24 90-61 142-110l14-14c29-28 51-52 64-71 25-37 38-72 38-107 0-37-9-80-27-129-9-26-19-48-28-67-10-19-21-35-34-48-15-15-31-25-50-32s-43-11-70-11c-23 0-42 3-57 8-217 68-407 173-571 316-81 70-154 148-219 233S616 886 572 981c-93 201-139 413-139 637 0 46 2 85 7 117 5 31 14 58 27 81 15 26 37 46 65 59s65 20 111 20c34 0 62-1 83-3 21-3 40-7 57-14z"/></font><g id="Priority-Msg-_x2F_-Img-Annotation"><g id="_x31_-0-Chat" transform="translate(-325 -627)"><g id="Navigation_x2F_Tab-Grey" transform="translate(300 618)"><path id="Container" fill="none" d="M0 0h75v50H0z"/><text transform="translate(25.432 41)" class="st1" font-size="10" font-family="ArialMT">Calls</text><text transform="translate(26.5 30)" class="st1" font-size="22" font-family="TeamsAssets-Regular"></text></g></g></g></svg>

<?xml version="1.0" encoding="utf-8"?>
<!-- Generator: Adobe Illustrator 21.0.0, SVG Export Plug-In . SVG Version: 6.00 Build 0)  -->
<svg version="1.1" id="Layer_1" xmlns="http://www.w3.org/2000/svg" xmlns:xlink="http://www.w3.org/1999/xlink" x="0px" y="0px"
	 viewBox="0 0 24 33" style="enable-background:new 0 0 24 33;" xml:space="preserve">
<style type="text/css">
	.st0{fill:none;}
	.st1{fill:#6F6D6D;}
	.st2{font-family:'ArialMT';}
	.st3{font-size:10px;}
	.st4{font-family:'TeamsAssets-Regular';}
	.st5{font-size:22px;}
</style>
<font horiz-adv-x="2048">
<!-- Arial is a trademark of The Monotype Corporation in the United States and/or other countries. -->
<!-- Copyright: Copyright 2018 Adobe System Incorporated. All rights reserved. -->
<font-face font-family="ArialMT" units-per-em="2048" underline-position="-217" underline-thickness="150"/>
<missing-glyph horiz-adv-x="1536" d="M256,0l0,1280l1024,0l0,-1280M288,32l960,0l0,1216l-960,0z"/>
<glyph unicode="C" horiz-adv-x="1479" d="M1204,514l194,-49C1357,306 1284,184 1179,101C1073,17 944,-25 791,-25C633,-25 505,7 406,72C307,136 231,229 180,351C128,473 102,604 102,744C102,897 131,1030 190,1144C248,1257 331,1344 439,1403C546,1462 665,1491 794,1491C941,1491 1064,1454 1164,1379C1264,1304 1334,1199 1373,1064l-191,-45C1148,1126 1099,1203 1034,1252C969,1301 888,1325 790,1325C677,1325 583,1298 508,1244C432,1190 379,1118 348,1027C317,936 302,842 302,745C302,620 320,512 357,419C393,326 449,256 526,210C603,164 686,141 775,141C884,141 976,172 1051,235C1126,298 1177,391 1204,514z"/>
<glyph unicode="a" horiz-adv-x="1139" d="M828,131C761,74 697,34 636,11C574,-12 508,-24 437,-24C320,-24 231,5 168,62C105,119 74,191 74,280C74,332 86,380 110,423C133,466 164,500 203,526C241,552 284,572 332,585C367,594 421,603 492,612C637,629 744,650 813,674C814,699 814,714 814,721C814,794 797,846 763,876C717,917 649,937 558,937C473,937 411,922 371,893C330,863 300,810 281,735l-176,24C121,834 147,895 184,942C221,988 274,1024 343,1049C412,1074 493,1086 584,1086C675,1086 748,1075 805,1054C862,1033 903,1006 930,974C957,941 975,900 986,851C992,820 995,765 995,685l0,-240C995,278 999,172 1007,128C1014,83 1029,41 1052,0l-188,0C845,37 833,81 828,131M813,533C748,506 650,484 519,465C445,454 393,442 362,429C331,416 308,396 291,371C274,345 266,316 266,285C266,237 284,197 321,165C357,133 410,117 480,117C549,117 611,132 665,163C719,193 759,234 784,287C803,328 813,388 813,467z"/>
<glyph unicode="l" horiz-adv-x="455" d="M131,0l0,1466l180,0l0,-1466z"/>
<glyph unicode="s" horiz-adv-x="1024" d="M63,317l178,28C251,274 279,219 325,181C370,143 434,124 516,124C599,124 660,141 700,175C740,208 760,248 760,293C760,334 742,366 707,389C682,405 621,425 523,450C391,483 300,512 249,537C198,561 159,595 133,638C106,681 93,728 93,780C93,827 104,871 126,912C147,952 177,985 214,1012C242,1033 280,1050 329,1065C377,1079 429,1086 484,1086C567,1086 641,1074 704,1050C767,1026 813,994 843,953C873,912 894,857 905,788l-176,-24C721,819 698,861 660,892C621,923 567,938 497,938C414,938 355,924 320,897C285,870 267,838 267,801C267,778 274,757 289,738C304,719 327,703 358,690C376,683 429,668 517,644C644,610 733,582 784,561C834,539 873,507 902,466C931,425 945,373 945,312C945,252 928,196 893,143C858,90 807,49 741,20C675,-9 600,-24 517,-24C379,-24 274,5 202,62C129,119 83,204 63,317z"/>
</font>

	<font horiz-adv-x="2048">
<!-- Copyright (c) 2017 by Microsoft. All rights reserved. -->
<!-- Copyright: Copyright 2018 Adobe System Incorporated. All rights reserved. -->
<font-face font-family="TeamsAssets-Regular" units-per-em="2048" underline-position="-119" underline-thickness="119"/>
<missing-glyph horiz-adv-x="600"/>
<glyph unicode="&#xE100;" horiz-adv-x="2048" d="M783,1878C802,1871 819,1859 836,1844C853,1829 870,1808 887,1783C916,1739 940,1688 961,1629C981,1569 991,1513 991,1462C991,1428 987,1397 978,1370C969,1343 956,1317 939,1292C926,1273 912,1254 896,1237C879,1219 863,1202 848,1187C833,1172 823,1162 818,1157l309,-444l56,27C1224,760 1263,775 1300,784C1319,789 1339,791 1362,791C1419,791 1476,775 1533,743C1576,719 1623,682 1675,633l14,-14C1718,591 1740,567 1753,548C1778,511 1791,476 1791,441C1791,404 1782,361 1764,312C1755,286 1745,264 1736,245C1726,226 1715,210 1702,197C1687,182 1671,172 1652,165C1633,158 1609,154 1582,154C1559,154 1540,157 1525,162C1308,230 1118,335 954,478C873,548 800,626 735,711C670,796 616,886 572,981C479,1182 433,1394 433,1618C433,1664 435,1703 440,1735C445,1766 454,1793 467,1816C482,1842 504,1862 532,1875C560,1888 597,1895 643,1895C677,1895 705,1894 726,1892C747,1889 766,1885 783,1878z"/>
</font>

	<desc>Created with Sketch.</desc>
<g id="Priority-Msg-_x2F_-Img-Annotation">
	<g id="_x31_-0-Chat" transform="translate(-325.000000, -627.000000)">
		<g id="Navigation_x2F_Tab-Grey" transform="translate(300.000000, 618.000000)">
			<rect id="Container" class="st0" width="75" height="50"/>
			<text transform="matrix(1 0 0 1 25.4324 41)" class="st1 st2 st3">Calls</text>
			<text transform="matrix(1 0 0 1 26.5 30)" class="st1 st4 st5"></text>
		</g>
	</g>
</g>
</svg>
